X: 19
T: Acemaşîrân Peşrev
C: Gazi Giray Han
O: Turkey
F: http://compmusic.upf.edu/node/140
N: acemasiran--pesrev--muhammes----gazi_giray_han
N: makam= acemasiran
N: form= pesrev
N: usul= muhammes = 32/4
M: 32/4
L: 1/16
K: C _B   
Q: 1/4=84
%%MIDI tuningsystem comma53
c6 g2 f4 e4  | f e f g f2 e2 d4 e f e d  | \
w:  1. HANE  |   | 
c4 d2 e2 f2 g2 f2 e2  | 
w:   | 
f g f e f2 g2 f4 g2 a2  | g3 f e2 f2 e2 g2 f4  | \
w:   |   | 
g2 a2 g2 ^f2 g4 a4  | 
w:   | 
a4 g2 a2 g4 c'2 _1/4b2  | d'4 c'2 _1/4b2 a c' b a a4  | \
w:   |   | 
g4 a8 g2 a2  | b a b c' b a g2 a2 a g f4  | 
w:   |   | 
g3 f e2 f2 g2 a2 f2 g2  | a2 c' b b a a g g f f e e d d ^c  | 
w:   |   | 
d4 e2 f2 g2 a2 f2 g2  | a2 b2 a2 g2 f3 e d2 a2  | \
w:   |   | 
g3 f e2 f2 e2 f2 g2 g f  | 
w:   | 
f6 c2 d2 e2 f4  | c2 d e f2 e2 f g f e f2 g2  | \
w:   |  MÜLÂZİME  | 
f2 g a g f e2 e2 f g f e d2  | 
w:   | 
d2 e f e d c2 d4 _7/8e3 d  | ^f g a b a g g f f _7/8e e d d c c _1/4B  | 
w:   |   | 
c4 d e d c d4 e4  | f g f e f2 g2 f2 g a g f _1/4e ^d  | \
w:   |   | 
_1/4e4 (3d2=e2f2 (3g2f2e2 (3d2c2_1/4B2  | 
w:   | 
A6 d2 c4 d4  | G2 A2 A2 G2 A2 A G A2 B2  | \
w:   |   | 
c2 d2 c2 _1/4B2 c4 d4  | d4 c2 d2 _e3 d d3 c  | 
w:   |   | 
c3 B B3 A A3 G G2 A G  | F4 G A G F G2 A2 B2 c2  | \
w:   |   | 
c2 A B A2 G2 F3 E D2 A2  | 
w:   | 
G3 F E2 F2 E2 F2 G2 G F  | F6 C2 D2 E2 F4  | |


